X: 77
T:League Reel (#273), The
M:4/4
L:1/8
S:Rice-Walsh manuscript
R:Reel
K:G
D2|:G2 Bd gdBd|cBAG FADA|GFED CE ag|1fdcA BGAF:|2fdcA G2||
ga|bg g2 bgdg|af f2 afdg|bgaf gefd|ecdB cABF|
G2 Bd gdBd|cBAG FADA|GFED CE ag|fdcA G2 z2||

